X:44b
T:President Garfield's hornpipe
S:Jim Coon to CoMandoList TOW
M:4/4
L:1/8
Q:214
K:C
z6dc|:_BFDF BFDF|_BFDF Bcd^d|fcAc fcAc|fefg f^d=dc|!
_BFDF BFDF|_BFDF Bcd^d| \
f_bag f^d=dc|1_BdcA B2dc:|2_BdcA B2_ba|!
|:g^d_BG ^DGBg|fd_BF DFBd|^dcgf dcgf| \
d_Bgf dB_ba|!
g^d_BG ^DGBg|fd_BF DFBd|^dgfd =dc_BG|1F_BAcB2_ba:|2_BdcAB4| \
